world_stage/static/flags/rect/lso.svg

<svg height="800" viewBox="0 0 1200 800" width="1200" xmlns="http://www.w3.org/2000/svg" xmlns:xlink="http://www.w3.org/1999/xlink"><clipPath id="a"><path d="m0 600h900v-600h-900z" transform="translate(-449.52831 -408.86181)"/></clipPath><clipPath id="b"><path d="m0 600h900v-600h-900z" transform="translate(-470.85841 -311.98191)"/></clipPath><clipPath id="c"><path d="m0 600h900v-600h-900z" transform="translate(-375.57571 -234.86041)"/></clipPath><clipPath id="d"><path d="m0 600h900v-600h-900z" transform="translate(-380.64751 -221.72071)"/></clipPath><clipPath id="e"><path d="m0 600h900v-600h-900z" transform="translate(-384.79691 -234.62991)"/></clipPath><clipPath id="f"><path d="m0 600h900v-600h-900z" transform="translate(-391.94291 -216.18751)"/></clipPath><clipPath id="g"><path d="m0 600h900v-600h-900z" transform="translate(-408.54101 -227.7139)"/></clipPath><clipPath id="h"><path d="m0 600h900v-600h-900z" transform="translate(-415.91801 -210.42481)"/></clipPath><clipPath id="i"><path d="m0 600h900v-600h-900z" transform="translate(-432.74661 -224.02641)"/></clipPath><clipPath id="j"><path d="m0 600h900v-600h-900z" transform="translate(-442.19821 -208.58011)"/></clipPath><clipPath id="k"><path d="m0 600h900v-600h-900z" transform="translate(-463.63671 -223.56451)"/></clipPath><clipPath id="l"><path d="m0 600h900v-600h-900z" transform="translate(-484.84571 -216.4189)"/></clipPath><clipPath id="m"><path d="m0 600h900v-600h-900z" transform="translate(-488.99511 -226.33111)"/></clipPath><clipPath id="n"><path d="m0 600h900v-600h-900z" transform="translate(-508.82032 -221.9512)"/></clipPath><clipPath id="o"><path d="m0 600h900v-600h-900z" transform="translate(-523.11331 -238.31841)"/></clipPath><clipPath id="p"><path d="m0 600h900v-600h-900z" transform="translate(-527.95411 -229.09771)"/></clipPath><g transform="matrix(1.3333333 0 0 -1.3333333 0 800)"><path d="m0 0h900v600h-900z" fill="#fff"/><path d="m0 0h900v180h-900z" fill="#009543"/><path d="m0 420h900v180h-900z" fill="#00209f"/></g><path clip-path="url(#a)" d="m0 0c-3.419-.073-6.756-3.861-6.756-3.861l.295-40.466-12.776-13.384h10.342l-.087-23.206-61.183-82.384-9.044 3.126-15.809-33.723s39.1-24.482 95.851-23.813c62.287.741 96.128 24.943 96.128 24.943l-16.336 33.288-7.999-3.478-61.966 81.957-.087 23.898h10.342l-14.075 13.218.083 40.318s-3.503 3.641-6.923 3.567" stroke="#000" stroke-width=".88" transform="matrix(1.3333333 0 0 -1.3333333 599.37107 254.85093)"/><path clip-path="url(#b)" d="m0 0h-42.305s-15.355 32.353-12.866 54.971c2.534 23.03 15.696 33.925 33.196 34.118 20.69.23 31.534-10.138 34.81-33.196 3.246-22.849-12.835-55.893-12.835-55.893z" fill="none" stroke="#000" stroke-width="4.398" transform="matrix(1.3333333 0 0 -1.3333333 627.8112 384.02413)"/><g fill="#fff"><path clip-path="url(#c)" d="m0 0c-.691-.922-5.763-11.065-5.763-11.065l8.76 1.844z" transform="matrix(1.3333333 0 0 -1.3333333 500.7676 486.8528)"/><path clip-path="url(#d)" d="m0 0-9.221-2.997 11.065-4.38z" transform="matrix(1.3333333 0 0 -1.3333333 507.53 504.3724)"/><path clip-path="url(#e)" d="m0 0 4.61-13.601 11.296 3.228-2.997 6.454z" transform="matrix(1.3333333 0 0 -1.3333333 513.06253 487.16013)"/><path clip-path="url(#f)" d="m0 0 1.614-5.532 14.984-3.689-5.994 12.679z" transform="matrix(1.3333333 0 0 -1.3333333 522.59053 511.75)"/><path clip-path="url(#g)" d="m0 0 5.302-12.679 11.296 4.38-3.688 5.533z" transform="matrix(1.3333333 0 0 -1.3333333 544.72133 496.38147)"/><path clip-path="url(#h)" d="m0 0 1.844-4.841 17.52-2.536-7.377 11.526z" transform="matrix(1.3333333 0 0 -1.3333333 554.55733 519.4336)"/><path clip-path="url(#i)" d="m0 0 6.455-11.296 16.367 5.993-1.844 4.38z" transform="matrix(1.3333333 0 0 -1.3333333 576.99547 501.29813)"/><path clip-path="url(#j)" d="m0 0 3.458-5.993 20.286.691-7.607 11.296z" transform="matrix(1.3333333 0 0 -1.3333333 589.5976 521.8932)"/><path clip-path="url(#k)" d="m0 0 5.533-9.451 12.909 6.224-3.458 5.072z" transform="matrix(1.3333333 0 0 -1.3333333 618.18227 501.914)"/><path clip-path="url(#l)" d="m0 0-12.909-6.455 3.457-5.533 17.29 2.766z" transform="matrix(1.3333333 0 0 -1.3333333 646.46093 511.44147)"/><path clip-path="url(#m)" d="m0 0 6.686-8.299 10.835 8.529-3.689 3.919z" transform="matrix(1.3333333 0 0 -1.3333333 651.99347 498.2252)"/><path clip-path="url(#n)" d="m0 0-10.374-7.838 2.767-4.841 14.293 3.689z" transform="matrix(1.3333333 0 0 -1.3333333 678.42707 504.06507)"/><path clip-path="url(#o)" d="m0 0 2.536-3.688-7.146-10.604-7.377 9.451z" transform="matrix(1.3333333 0 0 -1.3333333 697.4844 482.24213)"/><path clip-path="url(#p)" d="m0 0 4.38-8.76-8.76-2.997-.691 4.15z" transform="matrix(1.3333333 0 0 -1.3333333 703.9388 494.5364)"/></g></svg>

<?xml version="1.0" encoding="UTF-8" standalone="no"?>
<!-- Created with Inkscape (http://www.inkscape.org/) -->

<svg
   version="1.1"
   id="svg1"
   width="1200"
   height="800"
   viewBox="0 0 1200 800"
   sodipodi:docname="ls.ai"
   xmlns:inkscape="http://www.inkscape.org/namespaces/inkscape"
   xmlns:sodipodi="http://sodipodi.sourceforge.net/DTD/sodipodi-0.dtd"
   xmlns="http://www.w3.org/2000/svg"
   xmlns:svg="http://www.w3.org/2000/svg">
  <defs
     id="defs1">
    <clipPath
       clipPathUnits="userSpaceOnUse"
       id="clipPath5">
      <path
         d="M 0,600 H 900 V 0 H 0 Z"
         transform="translate(-449.52831,-408.86181)"
         id="path5" />
    </clipPath>
    <clipPath
       clipPathUnits="userSpaceOnUse"
       id="clipPath7">
      <path
         d="M 0,600 H 900 V 0 H 0 Z"
         transform="translate(-470.85841,-311.98191)"
         id="path7" />
    </clipPath>
    <clipPath
       clipPathUnits="userSpaceOnUse"
       id="clipPath9">
      <path
         d="M 0,600 H 900 V 0 H 0 Z"
         transform="translate(-375.57571,-234.86041)"
         id="path9" />
    </clipPath>
    <clipPath
       clipPathUnits="userSpaceOnUse"
       id="clipPath11">
      <path
         d="M 0,600 H 900 V 0 H 0 Z"
         transform="translate(-380.64751,-221.72071)"
         id="path11" />
    </clipPath>
    <clipPath
       clipPathUnits="userSpaceOnUse"
       id="clipPath13">
      <path
         d="M 0,600 H 900 V 0 H 0 Z"
         transform="translate(-384.79691,-234.62991)"
         id="path13" />
    </clipPath>
    <clipPath
       clipPathUnits="userSpaceOnUse"
       id="clipPath15">
      <path
         d="M 0,600 H 900 V 0 H 0 Z"
         transform="translate(-391.94291,-216.18751)"
         id="path15" />
    </clipPath>
    <clipPath
       clipPathUnits="userSpaceOnUse"
       id="clipPath17">
      <path
         d="M 0,600 H 900 V 0 H 0 Z"
         transform="translate(-408.54101,-227.7139)"
         id="path17" />
    </clipPath>
    <clipPath
       clipPathUnits="userSpaceOnUse"
       id="clipPath19">
      <path
         d="M 0,600 H 900 V 0 H 0 Z"
         transform="translate(-415.91801,-210.42481)"
         id="path19" />
    </clipPath>
    <clipPath
       clipPathUnits="userSpaceOnUse"
       id="clipPath21">
      <path
         d="M 0,600 H 900 V 0 H 0 Z"
         transform="translate(-432.74661,-224.02641)"
         id="path21" />
    </clipPath>
    <clipPath
       clipPathUnits="userSpaceOnUse"
       id="clipPath23">
      <path
         d="M 0,600 H 900 V 0 H 0 Z"
         transform="translate(-442.19821,-208.58011)"
         id="path23" />
    </clipPath>
    <clipPath
       clipPathUnits="userSpaceOnUse"
       id="clipPath25">
      <path
         d="M 0,600 H 900 V 0 H 0 Z"
         transform="translate(-463.63671,-223.56451)"
         id="path25" />
    </clipPath>
    <clipPath
       clipPathUnits="userSpaceOnUse"
       id="clipPath27">
      <path
         d="M 0,600 H 900 V 0 H 0 Z"
         transform="translate(-484.84571,-216.4189)"
         id="path27" />
    </clipPath>
    <clipPath
       clipPathUnits="userSpaceOnUse"
       id="clipPath29">
      <path
         d="M 0,600 H 900 V 0 H 0 Z"
         transform="translate(-488.99511,-226.33111)"
         id="path29" />
    </clipPath>
    <clipPath
       clipPathUnits="userSpaceOnUse"
       id="clipPath31">
      <path
         d="M 0,600 H 900 V 0 H 0 Z"
         transform="translate(-508.82032,-221.9512)"
         id="path31" />
    </clipPath>
    <clipPath
       clipPathUnits="userSpaceOnUse"
       id="clipPath33">
      <path
         d="M 0,600 H 900 V 0 H 0 Z"
         transform="translate(-523.11331,-238.31841)"
         id="path33" />
    </clipPath>
    <clipPath
       clipPathUnits="userSpaceOnUse"
       id="clipPath35">
      <path
         d="M 0,600 H 900 V 0 H 0 Z"
         transform="translate(-527.95411,-229.09771)"
         id="path35" />
    </clipPath>
  </defs>
  <sodipodi:namedview
     id="namedview1"
     pagecolor="#ffffff"
     bordercolor="#000000"
     borderopacity="0.25"
     inkscape:showpageshadow="2"
     inkscape:pageopacity="0.0"
     inkscape:pagecheckerboard="0"
     inkscape:deskcolor="#d1d1d1">
    <inkscape:page
       x="0"
       y="0"
       inkscape:label="1"
       id="page1"
       width="1200"
       height="800"
       margin="0"
       bleed="0" />
  </sodipodi:namedview>
  <g
     id="layer-MC0"
     inkscape:groupmode="layer"
     inkscape:label="Layer 1">
    <path
       id="path1"
       d="M 0,0 H 900 V 600 H 0 Z"
       style="fill:#ffffff;fill-opacity:1;fill-rule:nonzero;stroke:none"
       transform="matrix(1.3333333,0,0,-1.3333333,0,800)" />
    <path
       id="path2"
       d="M 0,0 H 900 V 180 H 0 Z"
       style="fill:#009543;fill-opacity:1;fill-rule:nonzero;stroke:none"
       transform="matrix(1.3333333,0,0,-1.3333333,0,800)" />
    <path
       id="path3"
       d="M 0,420 H 900 V 600 H 0 Z"
       style="fill:#00209f;fill-opacity:1;fill-rule:nonzero;stroke:none"
       transform="matrix(1.3333333,0,0,-1.3333333,0,800)" />
    <path
       id="path4"
       d="m 0,0 c -3.419,-0.073 -6.756,-3.861 -6.756,-3.861 l 0.295,-40.466 -12.776,-13.384 h 10.342 l -0.087,-23.206 -61.183,-82.384 -9.044,3.126 -15.809,-33.723 c 0,0 39.1,-24.482 95.851,-23.813 62.287,0.741 96.128,24.943 96.128,24.943 l -16.336,33.288 -7.999,-3.478 -61.966,81.957 -0.087,23.898 H 20.915 L 6.84,-43.885 6.923,-3.567 C 6.923,-3.567 3.42,0.074 0,0"
       style="fill:#000000;fill-opacity:1;fill-rule:nonzero;stroke:#000000;stroke-width:0.88;stroke-linecap:butt;stroke-linejoin:miter;stroke-miterlimit:4;stroke-dasharray:none;stroke-opacity:1"
       transform="matrix(1.3333333,0,0,-1.3333333,599.37107,254.85093)"
       clip-path="url(#clipPath5)" />
    <path
       id="path6"
       d="m 0,0 h -42.305 c 0,0 -15.355,32.353 -12.866,54.971 2.534,23.03 15.696,33.925 33.196,34.118 20.69,0.23 31.534,-10.138 34.81,-33.196 C 16.081,33.044 0,0 0,0 Z"
       style="fill:none;stroke:#000000;stroke-width:4.398;stroke-linecap:butt;stroke-linejoin:miter;stroke-miterlimit:4;stroke-dasharray:none;stroke-opacity:1"
       transform="matrix(1.3333333,0,0,-1.3333333,627.8112,384.02413)"
       clip-path="url(#clipPath7)" />
    <path
       id="path8"
       d="m 0,0 c -0.691,-0.922 -5.763,-11.065 -5.763,-11.065 l 8.76,1.844 z"
       style="fill:#ffffff;fill-opacity:1;fill-rule:nonzero;stroke:none"
       transform="matrix(1.3333333,0,0,-1.3333333,500.7676,486.8528)"
       clip-path="url(#clipPath9)" />
    <path
       id="path10"
       d="M 0,0 -9.221,-2.997 1.844,-7.377 Z"
       style="fill:#ffffff;fill-opacity:1;fill-rule:nonzero;stroke:none"
       transform="matrix(1.3333333,0,0,-1.3333333,507.53,504.3724)"
       clip-path="url(#clipPath11)" />
    <path
       id="path12"
       d="m 0,0 4.61,-13.601 11.296,3.228 -2.997,6.454 z"
       style="fill:#ffffff;fill-opacity:1;fill-rule:nonzero;stroke:none"
       transform="matrix(1.3333333,0,0,-1.3333333,513.06253,487.16013)"
       clip-path="url(#clipPath13)" />
    <path
       id="path14"
       d="M 0,0 1.614,-5.532 16.598,-9.221 10.604,3.458 Z"
       style="fill:#ffffff;fill-opacity:1;fill-rule:nonzero;stroke:none"
       transform="matrix(1.3333333,0,0,-1.3333333,522.59053,511.75)"
       clip-path="url(#clipPath15)" />
    <path
       id="path16"
       d="m 0,0 5.302,-12.679 11.296,4.38 -3.688,5.533 z"
       style="fill:#ffffff;fill-opacity:1;fill-rule:nonzero;stroke:none"
       transform="matrix(1.3333333,0,0,-1.3333333,544.72133,496.38147)"
       clip-path="url(#clipPath17)" />
    <path
       id="path18"
       d="M 0,0 1.844,-4.841 19.364,-7.377 11.987,4.149 Z"
       style="fill:#ffffff;fill-opacity:1;fill-rule:nonzero;stroke:none"
       transform="matrix(1.3333333,0,0,-1.3333333,554.55733,519.4336)"
       clip-path="url(#clipPath19)" />
    <path
       id="path20"
       d="m 0,0 6.455,-11.296 16.367,5.993 -1.844,4.38 z"
       style="fill:#ffffff;fill-opacity:1;fill-rule:nonzero;stroke:none"
       transform="matrix(1.3333333,0,0,-1.3333333,576.99547,501.29813)"
       clip-path="url(#clipPath21)" />
    <path
       id="path22"
       d="M 0,0 3.458,-5.993 23.744,-5.302 16.137,5.994 Z"
       style="fill:#ffffff;fill-opacity:1;fill-rule:nonzero;stroke:none"
       transform="matrix(1.3333333,0,0,-1.3333333,589.5976,521.8932)"
       clip-path="url(#clipPath23)" />
    <path
       id="path24"
       d="m 0,0 5.533,-9.451 12.909,6.224 -3.458,5.072 z"
       style="fill:#ffffff;fill-opacity:1;fill-rule:nonzero;stroke:none"
       transform="matrix(1.3333333,0,0,-1.3333333,618.18227,501.914)"
       clip-path="url(#clipPath25)" />
    <path
       id="path26"
       d="m 0,0 -12.909,-6.455 3.457,-5.533 17.29,2.766 z"
       style="fill:#ffffff;fill-opacity:1;fill-rule:nonzero;stroke:none"
       transform="matrix(1.3333333,0,0,-1.3333333,646.46093,511.44147)"
       clip-path="url(#clipPath27)" />
    <path
       id="path28"
       d="M 0,0 6.686,-8.299 17.521,0.23 13.832,4.149 Z"
       style="fill:#ffffff;fill-opacity:1;fill-rule:nonzero;stroke:none"
       transform="matrix(1.3333333,0,0,-1.3333333,651.99347,498.2252)"
       clip-path="url(#clipPath29)" />
    <path
       id="path30"
       d="m 0,0 -10.374,-7.838 2.767,-4.841 14.293,3.689 z"
       style="fill:#ffffff;fill-opacity:1;fill-rule:nonzero;stroke:none"
       transform="matrix(1.3333333,0,0,-1.3333333,678.42707,504.06507)"
       clip-path="url(#clipPath31)" />
    <path
       id="path32"
       d="m 0,0 2.536,-3.688 -7.146,-10.604 -7.377,9.451 z"
       style="fill:#ffffff;fill-opacity:1;fill-rule:nonzero;stroke:none"
       transform="matrix(1.3333333,0,0,-1.3333333,697.4844,482.24213)"
       clip-path="url(#clipPath33)" />
    <path
       id="path34"
       d="m 0,0 4.38,-8.76 -8.76,-2.997 -0.691,4.15 z"
       style="fill:#ffffff;fill-opacity:1;fill-rule:nonzero;stroke:none"
       transform="matrix(1.3333333,0,0,-1.3333333,703.9388,494.5364)"
       clip-path="url(#clipPath35)" />
  </g>
</svg>
